X: 177
T: Petar's Hornpipe
T: Longways for &c.
%R: triple hornpipe
B: Daniel Wright "Wright's Compleat Collection of Celebrated Country Dances" 1740 p.89
S: http://library.efdss.org/cgi-bin/dancebooks.cgi
Z: 2014 John Chambers <jc:trillian.mit.edu>
M: 3/2
L: 1/8
K: G
% - - - - - - - - - - - - - - - - - - - - - - - - -
|:\
G4 BcdF G4 | (ed)(cB) (AB)(cG) F2A2 |\
(dc)(BA) (GA)(GF) E2A2 | (cB)(AG) (DG)(FA) G4 :|\
g4 (ba)(gf) (eg)(ec) | A4 (gb)(ag) (fe)(fg) |
F2G2 e3d (cB)(AG) | (cB)(AG) (FD)(EF) (GA)(Bc) |\
(GA)(Bc) d2G2 F2G2 | ABcd e2A2 ^G2A2 |\
b3a (gfed) (cBAG) | (cBAG) (DG)(AF) G4 |]
% - - - - - - - - - - - - - - - - - - - - - - - - -
%%center The 1st strain twice, the last but once.
%%begintext align
%% The 1st Cu. figure through the 2d Cu. .| then
%% cast off and turn his partner in 2d Cu. place :|
%% then the 1st Man change places with the 3d Wo.
%% and the 1st Wo. with the 3d Man and go quite
%% round, and cast of below the 3d Cu. and lead
%% quite through the top, and cast off, then right and
%% left quite round with the top Cu. into the 2d Cu place .|
%%endtext
% - - - - - - - - - - - - - - - - - - - - - - - - -
%%sep 2 4 300
